X:1
T:So ben che regnante più degna di te
T:So ben che regnante più degna di te
T:HWV 1 Almira Act 1 Aria for Fenando in g minor
T:Händel, Georg F. 
T:MuseScore 2 CC0©EJM 
T:Sequenced by Edward James Maurath
T:Sequenced by Edward James Maurath
C:Händel, Georg F.
Z:MuseScore 2 CC0©EJM
Z:Sequenced by Edward James Maurath
%%score 1 2 3 { ( 4 6 ) | 5 }
L:1/8
Q:1/4=108
M:3/4
K:Bb
V:1 tenor nm="Tenor as\nFernando" snm="BSN"
V:2 bass nm="Violoncello\nContinuo" snm="VCL"
V:3 bass-8 nm="Contrabass\nContinuo" snm="CTB"
V:4 treble nm="Harpsichord" snm="Hch."
V:6 treble 
V:5 bass 
V:1
"^[no marking]" z | z6 | z6 | z6 | z6 | z6 | z6 | z6 | z6 | z4 z D, | G,3 B, A,G, | ^F,G, A,3 C | %12
w: |||||||||Lo|ben che- * re-|gran- * te più|
 B,A, G,^F, G,A, | D,6 | z6 | z6 | z6 | z6 | z2 z2 z D, | G,3 B, A,G, | ^F,G, A,3 C | %21
w: de- * gna * di *|te,|||||Lo|ben che- * re-|gran- * te più|
 B,A, G,^F, G,A, | D,4 B,2 | B,3 C A,2 | B,4 G,A, | F,G, F,2 E,D, | D,4 D,2 | D,3 D, =E,F, | %28
w: de- * gna * di *|te il|mon- do non|ha, il *|mon- * do non *|ha, so|ben che * re-|
 =E,3 E, ^F,G, | ^F,3 F, G,A, | G,3 A, B,C | ^F,2 D,2 EC | D2 B,2 A,G, | G,6 | z6 | z6 | z6 | z6 | %38
w: grnan te più *|de- gna * di|te il * *|mon- do, il *|* mon- do non|ha.|||||
 z6!fine! |] z B,2 | B,2 B,3 D | B,2 A,3 A, | D2 G,2 G,A, | G,2 F,3 F, | B,A, B,3 G, | %45
w: |Per|lál- ot fa-|vor- re le-|ga- toil mi- o|co- re, le|ga _ _ _|
 A,G, A,3 A, | D3 F =ED | ^C=B, A,G, F,=E, | F,3 D, B,2 | B,2 A,2 z A, | B,A, G,F, =E,D, | %51
w: _ _ _ _|* toil mi- o|co- * re, * per *|lál- to fa-|vo- re le-|ga- * to il mi- o|
 ^C3[Q:1/4=72]"^[slower]" =B, A,G, | F,=E,[Q:1/4=48]"^[slower]" F,2 TE,D, | D,2 z2 z!D.C.! |] %54
w: co- re o- *|gn- o * ra sa|rà|
V:2
"_Hidden continuo by\nEdward J. Maurath" D, | G,3 B, A,G, | ^F,G, A,3 C | B,A, G,^F, G,A, | %4
 D,3 D, G,F, | E,D, C,E, F,E, | D,C, B,,D, E,D, | C,B,, A,,C, D,C, | B,,G,, D,2 D,,2 | G,,6 | %10
 z D, G,3 B, | A,G, ^F,G, A,2- | A,C B,A, G,^F, | G,A, D,D, G,F, | E,D, C,E, F,E, | %15
 D,C, B,,D, E,D, | C,B,, A,,C, D,C, | B,,G,, D,2 D,,2 | G,,6 | z D, G,3 B, | A,G, ^F,G, A,2- | %21
 A,C B,A, G,^F, | G,A, D,F, G,F, | E,D, C,E, F,E, | D,C, B,,A,, B,,2 | A,,2 G,,2 A,,2 | B,,6 | %27
 B,,A,, G,,2 z2 | C,B,, A,,2 z2 | D,C, B,,2 z2 | E,D, C,2 z2 | D,2 B,,2 C,2 | D,2 C,2 D,2 | %33
 G,,3 D, G,F, | E,D, C,E, F,E, | D,C, B,,D, E,D, | C,B,, A,,C, D,C, | B,,G,, D,2 D,,2 | G,,6 |] %39
 =E,G, F, | =E,D, C,E, D,E, | F,3 =E, F,D, | B,3 A, B,G, | A,3 G, A,F, | G,3 F, G,C, | %45
 F,3 =E, F,D, | B,,A,, B,,2 G,,2 | A,,2 =B,,2 ^C,2 | D,2 B,,2 G,,2 | C,2 F,2 C,2 | G,2 G,,4 | %51
 G,,4 F,,2 | G,,2 A,,4 | D,2 z2 z |] %54
V:3
 D, | G,3 B, A, G, | ^F, G, A,3 C | B, A, G, ^F, G, A, | D,3 D, G, F, | E, D, C, E, F, E, | %6
 D, C, B,, D, E, D, | C, B,, A,, C, D, C, | B,, G,, D,2 D,,2 | G,,6 | z D, G,3 B, | %11
 A, G, ^F, G, A,2- | A, C B, A, G, ^F, | G, A, D, D, G, F, | E, D, C, E, F, E, | %15
 D, C, B,, D, E, D, | C, B,, A,, C, D, C, | B,, G,, D,2 D,2 | G,,6 | z D, G,3 B, | %20
 A, G, ^F, G, A,2- | A, C B, A, G, ^F, | G, A, D, F, G, F, | E, D, C, E, F, E, | %24
 D, C, B,, A,, B,,2 | A,,2 G,,2 A,,2 | B,,6 | B,, A,, G,,2 z2 | C, B,, A,,2 z2 | D, C, B,,2 z2 | %30
 E, D, C,2 z2 | D,2 B,,2 C,2 | D,2 C,2 D,2 | G,,3 D, G, F, | E, D, C, E, F, E, | %35
 D, C, B,, D, E, D, | C, B,, A,, C, D, C, | B,, G,, D,2 D,2 | G,,6 |] =E, G, F, | %40
 =E, D, C, E, D, E, | F,3 =E, F, D, | B,3 A, B, G, | A,3 G, A, F, | G,3 F, G, C, | F,3 =E, F, D, | %46
 B,, A,, B,,2 G,,2 | A,,2 =B,,2 ^C,2 | D,2 B,,2 G,,2 | C,2 F,2 C,2 | G,2 G,,4 | G,,4 F,,2 | %52
 G,,2 A,,4 | D,2 z2 z |] %54
V:4
 D | G3 B A G | ^F G A3 c | B A G ^F G A | D3 D G F | E D C E F E | D C B, D E D | C B, A, C D C | %8
 B, G, z4 | [DG]6 | z D G3 B | A G ^F G A2- | A c B A G ^F | [DG] [DA] D D G F | E D C E F E | %15
 D C B, D E D | C B, A, C D C | B, G, z4 | [DG]6 | z D G3 B | A G ^F G A2- | A c B A G ^F | %22
 D4 B,2 | E D C E F E | B6 | A2 F2 [F,D]2 | D6 | [G,B,] A, G,2 z2 | [A,C] B, A,2 z2 | %29
 [B,D] C B,2 z2 | [CE] D C2 z2 | D2 B,2 C2 | D2 C2 D2 | G3 D G F | E D C E F E | D C B, D E D | %36
 C B, A, C D C | B, G, z4 | [DG]6 |] =E [EG] [DF] | =E D C E D E | F3 =E F D | B3 A B G | %43
 A3 G A F | G3 x G C | F3 [^C=E] [DF] [F,D] | [G,B,] A, B,2 [G,B,]2 | [A,^C]2 =B,2 C2 | %48
 D2 B,2 [G,B,]2 | C2 [DF]2 [A,C]2 | [DG]2 [G,B,]4 | [G,A,^CE]4 [DF]2 | [=EG]2 [DFA]2 [EGA^c]2 | %53
 [Fd]2 z2 z |] %54
V:5
 D, | G,3 B, A, G, | ^F, G, A,3 C | B, A, G, ^F, G, A, | D,3 D, G, F, | E, D, C, E, F, E, | %6
 D, C, B,, D, E, D, | [C,G,] B,, A,, C, D, C, | B,, G,, D,2 D,,2 | [G,,B,]6 | z D, [G,B,D]3 B, | %11
 A, G, ^F, G, A,2- | A, C B, A, G, ^F, | G, A, [D,^F,A,] [D,F,A,] [G,B,] [F,A,] | %14
 E, D, C, E, F, E, | D, C, B,, D, E, D, | [C,G,] B,, A,, C, D, C, | B,, G,, D,2 D,,2 | G,,6 | %19
 z D, G,3 B, | A, G, ^F, G, A,2- | A, C B, A, G, ^F, | G, A, D, F, G, F, | E, D, C, E, F, E, | %24
 D, C, B,, A,, B,,2 | A,,2 G,,2 A,,2 | [B,,F,]6 | B,, A,, G,,2 z2 | C, B,, A,,2 z2 | %29
 D, C, B,,2 z2 | E, D, C,2 z2 | [D,^F,A,]2 B,,2 [C,E,]2 | [D,^F,A,]2 C,2 [D,F,]2 | %33
 [G,,D,B,]3 D, G, F, | E, D, C, E, F, E, | D, C, B,, D, E, D, | [C,G,] B,, A,, C, D, C, | %37
 B,, G,, D,2 D,,2 | [G,,B,]6 |] =E, G, F, | =E, D, C, E, D, E, | F,3 =E, F, D, | B,3 A, B, G, | %43
 A,3 G, A, F, | G,3 F, G, C, | [F,A,C]3 =E, F, D, | B,, A,, B,,2 G,,2 | A,,2 =B,,2 ^C,2 | %48
 [D,F,A,]2 B,,2 [G,,D,]2 | [C,=E,G,]2 F,2 C,2 | [G,B,]2 G,,4 | G,,4 F,,2 | G,,2 A,,4 | %53
 [D,A,]2 z2 z |] %54
V:6
 x | !arpeggio![B,D]3 [DG]3 | [A,D]2 [CD^F]3 [EA] | [DG] [C^F] [B,D] [A,C] [B,D] [CF] | %4
 [^F,A,CD]3 [F,A,CD] [B,DG]2 | C3 C A, C | [^F,A,]2 [D,G,] [G,B,] [A,C]2 | x2 [D,^F,A,] C F, A, | %8
 G,2 [G,B,D]2 [A,D^F]2 | x6 | x6 | x6 | x6 | x6 | C3 C A, C | [^F,A,]2 [D,G,] [G,B,] [A,C]2 | %16
 x2 [D,^F,A,] C F, A, | G,2 [G,B,D]2 [A,D^F]2 | x6 | x6 | x6 | x6 | x6 | x6 | x6 | x6 | x6 | x6 | %28
 x6 | x6 | x6 | x6 | x6 | x6 | C3 C A, C | [^F,A,]2 [D,G,] [G,B,] [A,C]2 | x2 [D,^F,A,] C F, A, | %37
 G,2 [G,B,D]2 [A,D^F]2 | x6 |] x3 | x6 | x6 | A2 G x3 | G2 F x3 | F2 =E F x2 | x6 | x6 | x6 | x6 | %49
 x6 | x6 | x6 | x6 | x5 |] %54

